icons/hard-drive.svg

<svg width="24" height="24" viewBox="0 0 24 24" fill="none" xmlns="http://www.w3.org/2000/svg">
<path d="M11.5 17H12.5M16.5 17H17.5M3.25 12.2577C9.06441 12.9394 14.9356 12.9394 20.75 12.2577M6.01537 2L3.288 11.1878C3.09707 11.8979 3.0002 12.6311 3 13.3676V19.4382C3 20.5556 3.91067 21.4897 5 21.4897C9.6431 22.1701 14.3569 22.1701 19 21.4897C20.0893 21.4897 21 20.5556 21 19.4382V13.3676C20.9998 12.6311 20.9029 11.8979 20.712 11.1878L18.55 2C14.398 2.67955 10.1673 2.67955 6.01537 2Z" stroke="black" stroke-width="2" stroke-linecap="round" stroke-linejoin="round"/>
</svg>

<svg xmlns="http://www.w3.org/2000/svg" width="24" height="24" viewBox="0 0 24 24" fill="none" stroke="currentColor" stroke-width="2" stroke-linecap="round" stroke-linejoin="round">
<path d="M11.5 17h1m4 0h1M3.25 12.258a75 75 0 0 0 17.5 0M6.015 2l-2.727 9.188A8.4 8.4 0 0 0 3 13.368v6.07c0 1.118.91 2.052 2 2.052 4.643.68 9.357.68 14 0 1.09 0 2-.934 2-2.052v-6.07c0-.737-.097-1.47-.288-2.18L18.55 2A38.8 38.8 0 0 1 6.015 2"/>
</svg>
